svgs/solid/circle-pause.svg

<svg xmlns="http://www.w3.org/2000/svg" viewBox="0 0 512 512"><!-- Font Awesome Pro 6.0.0-alpha2 by @fontawesome - https://fontawesome.com License - https://fontawesome.com/license (Commercial License) --><path d="M256 16C123.451 16 16 123.451 16 256S123.451 496 256 496S496 388.549 496 256S388.549 16 256 16ZM224 192V320C224 337.673 209.673 352 192 352H192C174.327 352 160 337.673 160 320V192C160 174.327 174.327 160 192 160H192C209.673 160 224 174.327 224 192ZM352 192V320C352 337.673 337.673 352 320 352H320C302.327 352 288 337.673 288 320V192C288 174.327 302.327 160 320 160H320C337.673 160 352 174.327 352 192Z"/></svg>

<svg xmlns="http://www.w3.org/2000/svg" viewBox="0 0 512 512"><!--! Font Awesome Pro 6.3.0 by @fontawesome - https://fontawesome.com License - https://fontawesome.com/license (Commercial License) Copyright 2023 Fonticons, Inc. --><path d="M256 512A256 256 0 1 0 256 0a256 256 0 1 0 0 512zM224 192V320c0 17.7-14.3 32-32 32s-32-14.3-32-32V192c0-17.7 14.3-32 32-32s32 14.3 32 32zm128 0V320c0 17.7-14.3 32-32 32s-32-14.3-32-32V192c0-17.7 14.3-32 32-32s32 14.3 32 32z"/></svg>
